X:1
T:Title
%%score { ( 1 3 ) | ( 2 4 ) }
L:1/8
M:4/4
K:Bb
V:1 treble nm="Grand Piano"
V:3 treble 
V:2 bass 
V:4 bass 
V:1
 z4 z2[Q:1/4=100] z F | B2 B2 B3 B | AGFE D3 F | .B2 .c2 d3 c |[M:7/8] B z c z d3 |[M:1/8] F | %6
[M:4/4] [B,DB]2 [B,EB]2 [B,=EB]3 [B,FB] | .[CA]2 z2 z4 | z4 z2 G2 |[M:7/8] [DFB]2 [CA]2 [B,DB]3 | %10
[M:1/8] [Dd] |[M:4/4] [Dd]2 [Dd]-[DGd] [DAd]2 [Dd]-[DAd] | [DBd]2 [Ac][GB] [D^FA]3 D | %13
 d2 cB A2 D2 |[M:7/8] d2 c B A3 |[M:1/8] F |[M:4/4] f2 e2 d3 d | c2 B2 A3 A | %18
 [=EFc]2 [DFB]2 [CFA]2 [B,G]F |[M:7/8] F2 z z z z2 |[M:1/8] F |[M:4/4] [DF]2 [_D=E]2 [DG]2 [=DF]2 | %22
 B6 z2 | c2 B2 A2 B2 | [Ge]6 [Ge]2 | [Fd]2 [Fc]2 [_Af]2 [FAd]2 | [E_Ac]2 [FAB]2 [Ge]3 [Ge] | %27
 z4 d2 z2 |[M:3/4] [DB]6 |] %29
V:2
 z4 z2 z F, | B,2 B,2 B,3 B, | A,G,F,E, D,3 F, | %3
 .[D,B,D]2[K:treble] .[F,CF]2 [B,DB]3[K:bass] [F,CF] | %4
[M:7/8] [D,B,D] z [F,CF] z[K:treble] [B,DB]3 |[M:1/8][K:bass] F, |[M:4/4] B,,2 C,2 _D,3 =D, | %7
 z B, [F,A,C]2 [B,,B,]3 [B,,B,] | E,2 D,2 z[K:treble] c[K:bass] z E |[M:7/8] F,2 z E B,,3 | %10
[M:1/8] D, |[M:4/4] D,2 D,=E, ^F,2 E,F, | G,2 ^F,G, D,3 D, | %13
 [B,DB]2 [A,CA][G,B,G][K:bass] [^F,A,^F]2 D,2 | %14
[M:7/8][K:treble] [B,DB]2 [A,CA] [G,B,G][K:bass] [D,A,D]3 |[M:1/8] F, | %16
[M:4/4][K:treble] [F,F]2 [A,CF]2 [B,DF]3 [B,F] | [A,CF]2[K:bass] [G,C=E]2 [F,CF]3 [F,CF] | %18
 B,,2 B,,2 B,,2 z A, |[M:7/8] G, z [C,B,C]2 [F,A,C]3 |[M:1/8] [F,A,E] | %21
[M:4/4] [B,,B,]2 [B,,G,]2 [B,,=E,]2 [B,,F,]2 | F,6 z2 | [E,G,E]2 [E,G,E]2 [E,^F,E]2 [E,G,E]2 | %24
 [E,B,]6 [E,B,]2 | [F,A,]2 [E,A,]2 [D,B,]2 B,,2 | C,2 D,2 [E,B,]3 [E,B,] | %27
 [F,B,F][F,D][F,DF][F,EF] .[F,F]2 [F,E]2 |[M:3/4] [B,,B,]6 |] %29
V:3
 x8 | x8 | x8 | x8 |[M:7/8] x7 |[M:1/8] x |[M:4/4] x8 | E-[EG]FE D3 [DF] | %8
 [B,EG]2 [=B,FG]2 .[CEG]2 [Fd]c |[M:7/8] z2 F z z z2 |[M:1/8] x |[M:4/4] z2 .^F2 z2 .G2 | %12
 z2 D2 z4 | x8 |[M:7/8] x7 |[M:1/8] x |[M:4/4] x8 | x8 | z4 z2 C2 |[M:7/8] z A, =E2 F3 |[M:1/8] x | %21
[M:4/4] x8 | D4 E2 [FB]2 | x8 | x8 | x8 | x8 | dFBc z G [Ac]2 |[M:3/4] x6 |] %29
V:4
 x8 | x8 | x8 | x2[K:treble] x5[K:bass] x |[M:7/8] x4[K:treble] x3 |[M:1/8][K:bass] x |[M:4/4] x8 | %7
 C,2 z2 z4 | z4 C,2[K:treble][K:bass] E,2 |[M:7/8] z2 F,2 z z2 |[M:1/8] x |[M:4/4] x8 | x8 | %13
 x4[K:bass] x4 |[M:7/8][K:treble] x4[K:bass] x3 |[M:1/8] x |[M:4/4][K:treble] x8 | x2[K:bass] x6 | %18
 z4 z2 C,2 |[M:7/8] [C,C]2 z z z z2 |[M:1/8] x |[M:4/4] x8 | B,,4 C,2 [D,_A,]2 | x8 | x8 | x8 | %26
 x8 | x8 |[M:3/4] x6 |] %29

